X:135
T: ALS ICH AUF MEINER BLEICHE
N: B0166
O: Europa, Mitteleuropa, Deutschland
R: Ballade, Romanze
M: 4/4
L: 1/8
K: A
E2 | A2A2c2B2 | B2A2A2
A2 | B3cdBAG | A2z4
E2 | A2A2c2B2 | B2A2A2
A2 | B3cdBAG | A2z4
c2 | B2e2^d2c2 | c2B2B2
A2 | G3BBAGF | E2z4
e2 | e^dd2=d2d2 | d2c2c2
A2 | B3cdBAG | A2z4

@@@ Tune index: 1938
